X: 14374
T: Galtee Mountain
R: hornpipe
M: 4/4
K: Gmajor
|:DF|GFGA BAGB|AEEF EGFE|DEFG ABAG|FDdF DFAF|
EDEF GFGA|BABd gefd|edBc dBAF|G2E2E2:|
|:GA|BGBd edef|gbaf gedB|cBAB cdef|geaf g2Bd|
gdBd ecAG|FDFA BGBd|edBc dBAF|G2E2E2:|

